X:1
T:Johann Sebastian Bach (1685-1750)
%%score [ 1 2 3 4 ]
L:1/8
Q:1/4=140
M:4/2
K:C
V:1 treble nm="Soprano" snm="S"
V:2 treble nm="Alto" snm="A"
V:3 treble-8 nm="Tenor" snm="T"
V:4 bass nm="Bass" snm="B"
V:1
"^Editor:  John Henry Fowler""^( Rev. 8 - 27 - 09 )""^(Allegro)" z2 (C2 E2 G2 c2 E2"^Lobet den Herrn - BWV 230" G2 c2 | %1
w: Lo- * * * * * *|
w: |
 e2 f"^SATB - Vocal parts only"e) (dc) (BA) B2 (gf edcB | c2) c2 d2 d2 (G2 AB c4- | %3
w: * * bet _ den _ _ Herrn, al- * * * * *|* le, al- le Hei~\-- * * *|
w: ||
 c2 _BA B4- B2) (AG) A2 d2 | =B2 G2 (cedf e4- edef | g2) (de) f4- f2 (ed) e4- | %6
w:  - * * * * den, _ al- le|Hei- den, al~\-- * * * * * * * *|* le * Hei- * den, * al-|
w: |||
 e2 e2 A2 B2 (c6 de | d6 ef e6 dc | d2) (cB) c4- c2 (BA) B4 | c2 gf edcB c2 G2 G2 c2- | %10
w: ­ le, al- le Hei- * *||* den, * al- * le _ Hei-|­ den, lo- * * * * * * bet, lo- *|
w: ||||
 c2 B2 dcBA B2 B2 B2 ^c c | d2 z2 z4 z8 | z2 (E2 A2) c2 (e2 fe d2) c2 | (d8- d2 ef e2 d2) | %14
w: * bet, lo- * * * * bet, lo- bet den|Herrn,|al- * le, al- * * * le|Hei- * * * * *|
w: ||||
 c2 (ed cBA^G A2) E2 A2 c B | c2 (cB c2) A2 ^f8- | f2 e2 g2 =f e d2 z2 z4 | z2 c4 B2 c2 C2 (E2 G2 | %18
w: den, lo- * * * * * * bet, lo- bet den|Herrn, al- * * le Hei-|* den, lo- bet den Herrn,|al- le Hei- den, lo- *|
w: ||||
 c2 E2 G2 c2 e2 fe) (dc) (BA) | B2 (gf edcB c2) c2 d2 d2 | (G2 AB c4- c2 _BA B4- | %21
w:  - * * * * * * bet * den *|Herrn, al- * * * * * * le, al- le|Hei- * * * * * * *|
w: |||
 B2) (AG) A2 d2 =B2 G2 c2 c2 | c8- c2 B2 z2 d2 | (efed cdcB A2) G A B2 (AB) | %24
w: ­ den, * al- le Hei- den, al- le|Hei- * den, und|prei- * * * * * * * * set ihn, al- le *|
w: |||
 (c2 de f4- f2) (gf) (ed) (cB) | c2 G2 z2 B2 c6 d c | (B2 cd ed) (ce) d2 G2 z2 d2 | %27
w: Völ~\-- * * * * ker, * al- * le _|Völ- ker, und prei- set ihn,|al- * * * * le _ Völ- ker, und|
w: |||
 B2 (cd) e2 e d (cdec defd | egfg agfe d2 ef gf) (ed) | c2 c2 f2 f g a2 a2 z2 (g2- | %30
w: prei- set, * prei- set ihn, al- * * * * * * *|* * * * * * * * * * * * * le *|Völ- ker, prei- set ihn, al- le, al-|
w: |||
 gf) (ef) d2 (ef) g2 g2 c4- | c2 (BA) B4 c2 G2 (cdcB | A2 Bc de) (dc) B2 B2 (efed | %33
w: ­- * le, * al- le * Völ- ker, al-|* le * Völ- ker, und prei- * * *|* * * * * set * ihn, und prei- * * *|
w: |||
 c2 defg) (fe) d2 (efgf) (ed) | (^c2 d2- d2 c2) d4 z2 d2 | (dedc BcBA G2) A B c2 c2 | %36
w:  - * * *   set * ihn, al~\-- * * * le _|Völ- * * * ker, und|prei~\-- * * * * * * * * set ihn, al- le,|
w: |||
 (cdc_B ABAG A2 =Bc d4- | d2) c2 B2 e2 c2 c2 z4 | z16 | z4 z2 d2 (efed cdcB | %40
w: al~\-- * * * * * * * * * * *|* le, al- le Völ- ker,||und prei~\-- * * * * * * *|
w: ||||
 A2) G A B2 (AB) (c2 de f4- | f2) (gf) (ed) (ec) d2 G2 z2 d2 | (efed cdcB A2) G A B2 (AB) | %43
w: * set ihn, al- le _ Völ- * * *|* ker, * al- * le- * Völ- ker, und|prei- * * * * * * * * set ihn, al- le *|
w: |||
 (c2 de f4- f2) (gf) (edcB | c2) f2 B4 c2 G2 (cdc_B | AGA_B c2) A2 F2 A2 (dedc | %46
w: Völ- * * * * ker, * al- * * *|* le Völ- ker, und prei- * * *| - * * * * set ihn, und prei~\-- * * *|
w: |||
 BABc d2) A2 B2 G2 (d4- | d2 cd e2) A2 d2 (d2- dc) (BA) | B2 E2 z2 e2 (efed cdcB | %49
w: * * * * * set ihn, und prei~\--|* * * * set ihn, al- * * le _|Völ- ker, und prei~\-- * * * * * * *|
w: |||
 A2) B c d2 d2 (dedc BcBA | G2 ABcB) c2 (B2 e2- e^de^f | B2) B2 (AG) (A^F) G2 E2 z2 (ed | %52
w: * set ihn, al- le, al~\-- * * * * * * *|* * * * * le Völ~\-- * * * * *|­ ker, al- * le _ Völ- ker, prei~\-- *|
w: |||
 ^c2 d2- d2) c2 d2 (fe d=cBA | B2) c2 (c2 B2) c2 (C2 E2 G2 | c2 E2 G2 c2 e2 fe) (dc) (BA) | %55
w: * * * set ihn, al- * * * * *|* le Völ- * ker. Lo- * *| - * * * * * bet _ den _ _|
w: ||\- * * * * * * * * * *|
 B2 (gfed) (cB) c2 A2 z2 d2 | G2 A B c4- c2 (BA) B4 | c4 z2 G2 c4 c4 | (c4 B2 A2) B4 B4 | %59
w: Herrn, al~\-- * * * le _ Hei- den, und|prei- set ihn, al- * le * Völ-|­ ker. Denn sei- ne|Gna- * * de und|
w: ||||
 e8 A4 (d2 e2 | f12 e4- | e4 d8) (c2 B2) | (A3 ^G) A4 G4 z2 B2 | c2 B2 (c8 B4 | c8) c4 c4 | %65
w: Wahr- heit wal~\-- *||* * tet *|ü- * ber uns, denn|sei- ne Gna- *|* de und|
w: ||||||
 (d6 c2) B4 _B2 c2 | d8 c8 | _B8 A6 A2 | A4 G4 A4 z2 A2 | d4 d4 d2 ^c2 d4 | _d4 e4 (f2 e2 f4) | %71
w: Wahr- * heit wal- *| - *|* * tet|ü- ber uns, denn|sei- ne Gna~\-- * *|\-~de und Wahr- * *|
w: ||||||
 e4 z8 (d2 ef | g2 d2 g2 f2 e2 de f2 e2 | d2 cd e2 d2 c2 A2 d2 c2 | _B2 AB c2 B2 A2 =B2) c4 | %75
w: heit wal- * *||| - * * * * * *  |
w: ||||
 (f2 e2) f4 e2 f2 g2 (fe) | d4 z4 z8 | z16 | z16 | z8 z4 c4 | c16- | c16- | c4 _B4 B4 z2 A2 | %83
w: ü- * ber uns in E- wig- *|keit,|||in|E-||* wig- keit, in|
w: ||||||||
 (G2 c4) _B2 (A2 G2) (A2 B2) | (c2 d2) (c2 _B2) A2 (cB c2) c2 | (cFGA _Bc) d B (c2 de fe) (dc) | %86
w: E- * wig- keit, _ in _|E- * wig- * keit, sei- * * ne|Gna~\-- * * * * de * und Wahr- * * * heit _ _|
w: |||
 (BABd cd) (ec) d2 (e^f) (g=f) (ed) | (^cBde =defd e2 fg ag) (fe) | f2 A4 =B2 (^c2 A2 a2) g a | %89
w: wal- * * * * * tet * ü- ber _ uns _ in _|E- * * * * * * * * * * * * wig- *|\-~keit, sei- ne Gna- * * de und|
w: |||
 (f2 e2) (f2 d2) (^c2 de fed=c | B2) A2 B2 ^c2 d2 A2 d4- | d4 ^c4 d4 z2 (A2 | %92
w: Wahr- * heit _ wal- * * * * * *|* tet ü- ber uns in E-|­ wig- keit, wal-|
w: |||
 d2 cB A2 GA B2) c2 d2 B2 | A2 G^F G4- G2 =FG A2 D2 | D2 (GA B2) e2 c2 (de f2) d2 | %95
w: * * * * * * * tet ü- ber|uns in * E- * * * * wig-|keit, sei- * * ne Gna- de _ _ und|
w: |||
 (G2 AB) c4 (F2 GA _B2) G2 | A2 (AG) A2 B2 (c2 G2 c4- | c4) B4 c4 z4 |[M:3/4] (cded) (ce) | %99
w: Wahr- * * heit wal- * * * tet|ü- ber _ uns in E- * *|* wig- keit.|Al- * * * le- *|
w: ||||
 d2 G2 g2- | g2 (fe) (fd) | (ef g2) z2 | z2 (GA) (BG) | c2 A2 d2 | (B2 e2) c2 | g2 (fe) (fd) | %106
w: lu- ja, Al-|* le- * lu- *|* * ja,|Al- * le- *|lu- ja, Al-|\-~le- * lu-|ja, Al- * le- *|
w: |||||||
 e2 G2 c2- | c2 (BA) (BG) | (ABcedc | Bc d2) (g2- | g2 fe) (df) | e2 A2 z2 | z2 (B2 e2- | %113
w: lu- ja, Al-|* le- * lu- *|ja, _ _ _ _ _|_ _ _ Al-|­ * * \-~le- *|lu- ja,|Al- *|
w: |||||||
 e2) (dc) (Bd) | (cdcBAc | BA) (Bd) (^ce) | d2 A2 (d2- | d2 =cB) (Ac) | B2 E2 e2- | e2 c2 A2 | %120
w: * le- * lu- *|ja, _ _ _ _ _|_ _ Al- * le- *|\-~lu- ja, Al~\--|* * * le- *|lu- ja, Al~\--|* le- lu-|
w: |||||||
 d4 d2- | d2 B2 G2 | (cBABcA | ^f2) (e^d e2) | (AGA^F) (BA) | G2 (B2 e2- | e2) (dc) (Bd) | %127
w: ja, Al~\--|* le- lu-|\-~ja, _ _ _ _ _|_ Al- * *|\-~le- * * * lu- *|ja, Al- *|* le- * lu- *|
w: |||||||
 (cBcedc | BAGABG | d2) z2 z2 | z2 (edce | d2) B2 e2 | (A6- | ABcBAc) | B2 E2 e2- | e2 dc dB | c6 | %137
w: ja, _ _ _ _ _|_ _ _ _ _ _||Al- * * *|* le- lu-|ja,|_ _ _ _ _ _|  Al- *|* * * le- *|lu-|
w: ||||||||||
 B6 | ABcBAc | Bcdc Bd | c2 E2 A2- | A2 ^G4 | A2 z2 z2 | z6 | z6 | (edcd) (ec) | d2 g2 z2 | %147
w: \-~ja,|Al- * * * * *|le- * * * lu- *|\-~ja, Al- le~\--|* lu-|ia,|||Al~\-- * * * le- *|\-~lu- ja,|
w: ||||||||||
 (cBAB) (cA) | B2 e2 z2 | (AGFG) (AF) | G2 (cB c2) | f6- | f2 (ed e2- | ef) (d3 c) | c2 z2 z2 | %155
w: Al~\-- * * * le- *|lu- ja,|Al~\-- * * * le- *|lu- ja, _ _|Al-|* le- * *|* * \-~lu- *|ja,|
w: ||||||||
 z2 (ef) g2- | g2 d2 g2 | z2 (cd) e2- | e2 B2 e2 | z2 (AB) c2- | c2 G2 c2 | z2 (ABcA) | %162
w: Al- * le-|* lu- ja,|Al- * le-|­ lu- ja,|Al- * le-|* lu- ja,|Al- * * *|
w: |||||||
 d2 (cB) (c2- | cd) B3 c | !fermata!c6 |] %165
w: le- lu- * ja,|_ _ Al- le-|lu-|
w: |||
V:2
 z16 | z2 (G,2 B,2 D2 G2 B,2 C2 G2 | A2 _BA) (GF) (ED) E2 (c=B AGFE | F2) F2 G2 G2 (C2 DE F4- | %4
w: |Lo- * * * * * *|* * * bet * den * Herrn, al- * * * * *|­ le, al- le Hei- * * *|
w: ||||
 F2) (EF) G2 B,2 (CGcB c4- | c2) (Bc) (dedc BcBA G2) G2 | (E4 F4 G2) E2 A2 G2 | %7
w: * den, _ al- le, al- * * * *|* le, _ al- * * * * * * * * \-~le|Hei- * * den, lo- bet,|
w: |||
 (A2 F2) D2 G2 G2 z2 C2 A2 | G2 C2 C2 D E A,2 F2- F2 (ED) | (EF G2- GFED E2) E2 E2 ^F F | %10
w: lo- * bet den Herrn, al- le|Hei- den, lo- bet den Herrn, al- * le _|Hei- * * * * * * * den, lo- bet den|
w: |||
 G2 (dc BAG^F G2) D2 (D2 G2- | G2) F2 (AGFE F2) F2 ^F2 _A2 | A2 E2 (cBA^G) A2 (dc B2) A2 | %13
w: Herrn, lo- * * * * * * bet, lo- *|* bet, al- * * * * le, al- le|Hei- den, al- * * * le, al- * * le|
w: |||
 B2 A2 ^G2 A2 (B2 cd c2 B2) | A2 (A,2 C2) E2 A8- | A8- A2 Bc B2 A2 | G8- GFED C_B,A,G, | %17
w: Hei- den, al- le Hei- * * * *|den, al- * le Hei-| - * * * * *||
w: ||||
 F,G, A,2 G,2 G2- GFEF G2 F2 | (EDCD E2) ^F2 G6 F2 | (G4- GFED C2) C2 A2 (GF) | %20
w: * * * den, al- * * * * * le|Hei- * * * * den, al- le|Hei- * * * * * den al- le *|
w: |||
 G2 E2 E2 A G A2 A4 G2 | G2 C2 C2 A2 G2 G2 G2 ^F E | D2 (^F2 G2) A2 G2 G2 z4 | z16 | z8 z4 z2 G2 | %25
w: Hei- den, lo- bet den Herrn, al- le|Hei- den, al- le Hei- den, lo- bet den|Herrn, al- * le Hei- den,||und|
w: |||||
 (AcBA GAGF E2) D E ^F2 (EF) | (G2 AB c4- c2) (dc) (BA) (G^F) | G2 G,2 z4 z2 G2 G2 G2 | %28
w: prei- * * * * * * * * set ihn, al- le _|Völ- * * * * ker, * al- * le *|Völ- ker, und prei- set|
w: |||
 G2 c2- c2 (dc) B2 B2 z2 G2 | E2 F G (A_BAG FGAF GABG | Ac_Bc dc) (Bd) c2 c2 z4 | %31
w: ihn, al- * le * Völ- ker, und|prei- set ihn, al- * * * * * * * * * * *| - * * * * * le * Völ- ker,|
w: ||* * * * * *   * * *|
 A2 F2 G2 G2 G2 E2 z2 E2 | (C2 DE FG) (FE) D2 D2 (GAGF | E2 FGA_B) (AG) F2 (GA B4- | %34
w: al- le, al- le Völ- ker, und|prei- * * * * set * ihn, und prei- * * *| - * * * set _ _ ihn, al~\-- * *|
w: |||
 B2) A2 _B2 A2 (ABAG FGFE) | D2 E ^F G2 G2 (GAG=F EFED | C2 DE F4- F2) A2 ^G2 AB | %37
w: * \-~le Völ- ker, prei~\-- * * * * * * *|* set ihn, al- le, al~\-- * * * * * * *| - * * * * le, al- * *|
w: ||* * * * *   * * *|
 E2 E2 DCB,C A,2 E2- EDEF | G2 E2 z2 D2- D2 CD E2 C2 | F2 D2 z4 z2 B2 (ABA^G | %40
w: * le, al- * le * Völ- * * * * *|* ker, al- * * * * le|Völ- ker, und prei- * * *|
w: |||
 A2) F F D2 G2 (EGFE D2) F2 | G2 B2 (cB c2) B2 D2 (GAGF | EDEF G2) E2 C4 z4 | %43
w: * set ihn, al- le, al- * * * * le,|al- le Völ- * * ker, und prei- * * *| - * * * *   ihn.|
w: |||
 z2 (G,2 B,2 D2 G2 B,2 C2 G2 | A2 _BA) (GF) (ED) E2 (EF G2) E2 | C2 C2 z2 C2 (FEFG A2) ^F2 | %46
w: Lo- * * * * * *|* * * bet den _ _ Herrn, al- * * le|Hei- den, und prei~\-- * * * * set,|
w: |||
 (BcBA GAG^F E2) D E F2 (EF) | (G2 AB c4- c2) (dc) (BA) (^G^F) | ^G2 G2 A2 B2 c2 A2 z4 | %49
w: prei- * * * * * * * * set ihn, al- le _|Völ- * * * * ker, * al- * le _|Völ- ker, al- le Völ- ker,|
w: |||
 z2 A2 (ABAG ^FGFE D2) E F | G2 G2 (GAG^F G2 AB cB) (AG) | (^F2 E2- E2 ^D2) E4 z2 _BB | %52
w: und prei~\-- * * * * * * * * set ihn|al- le, al~\-- * * * * * * * * le _|Völ~\-- * * * ker al- le,|
w: |||
 (AG_BA GF) (GE) A2 A,2 z2 A2 | D2 C C A2 D2 G2 G,2 z2 D2 | E2 B, C (D2 E4) D2 A2 F2 | %55
w: al~\-- * * * * * le _ Völ- ker, und|prei- set ihn, al- le Völ- ker, und|prei- set ihn, al- \- le, al- le|
w: |||
 G2 G2 z2 G2 G2 F E (F4- | F2 ED E4- E2) F2 D4 | E4 z2 G2 G4 ^F4 | G8 G4 G4 | (A6 G2) ^F4 (=F2 G2 | %60
w: Völ- ker, und prei- set ihn, al-|* * * * * le Völ-|\-~ker. Denn sei- ne|Gna- de und|Wahr- * heit wal~\-- *|
w: |||||
 A8 G8 | F8 E6) E2 | E4 D4 E4 z2 ^G2 | A4 E4 (F8- | F4 E2 D2) E4 E4 | (A4 D4) D4 (G2 A2 | %66
w: |* * tet|ü- ber uns, denn|sei- ne Gna-|* * * de und|Wahr- * heit wal- *|
w: ||||||
 _B12 A4- | A4 G8) (F2 E2) | (D2 ^C2) D4 C4 z2 E2 | (D2 E2) F4 F2 E2 F4 | E4 A4 (A8- | %71
w:  - *|* * tet *|ü- * ber uns, denn|sei- * ne Gna~\-- * *|\-~de und Wahr-|
w: |||||
 A2 E2 F2 D2) E4 z4 | z2 (GA _B2 A2 G2 FG A2 G2 | F2 EF G2 F2 E2 C2 F2 E2 | %74
w: * * * * heit|wal- * * * * * * * *||
w: |||
 D2 CD E2 D2 C2 D2 EF) G2 | (F2 A4) G2 G4 z2 G2 | G16- | G16- | G4 F4 F4 z2 E2 | %79
w: \- * * * * * * * * tet|ü- * ber uns in|E-||* wig- keit, in|
w:  - * * * * * * * * *|||||
 D2 G2- G2 F2 (E2 D2) (E2 F2) | (G2 A2) (G2 F2) G4 G2 G2 | (G2 FE FGAF G2 F2 E2) (F G) | %82
w: E- * * wig- keit, _ in _|E- * wig- * keit, sei- ne|Gna- * * * * * * * * * de _|
w: |||
 A4 D4 C2 C2 (DE) (FD) | G2 F2 (G4- GFEG F2) (ED) | C2 z2 z4 z2 (AG A2) A2 | %85
w: Wahr- heit wal- tet ü- * ber _|uns in E- * * * * * wig- *|keit, sei- * * ne|
w: |||
 (A2 _BA) G2 F2 (E2 FG) C2 (A2 | G2) (GF) G2 E2 ^F2 (GA) (D2 G=F | E2 A2- AG A2- A_BAG FE) (D^C) | %88
w: Gna- * * de und Wahr- * * heit wal-|* tet _ ü- ber uns in * E- * *|* * * * * * * * * * * wig- *|
w: |||
 D2 (FE FAGF ED^CE DFEF | D2 A2- AGAF G_BAG AGFE | D^CD) F E2 A2 A,6 A2 | (G2 F2) E4 D2 D4 E2 | %92
w: \-~keit, wal~\-- * * * * * * * * * * * * *||* * * tet ü- ber uns in|E- * wig- keit, sei- ne|
w: ||||
 (^F2 D2 d2) c d (B2 A2) (B2 G2) | (^F2 GA BAG=F E2) D2 E2 F2 | G2 D2 (G8 F4- | F4 E8) D4 | %96
w: Gna- * * de und Wahr- * heit _|wal- * * * * * * * tet ü- ber|uns in E- *|* * wig-|
w: ||||
 C4 z2 G2 (CDEF G4- | G2 A2) (G2 F2) E4 z4 |[M:3/4] z4 z2 | (GABA) (GB) | A2 D2 d2- | %101
w: keit, in E- * * * *|* * wig- * keit.||Al- * * * le- *|lu- ja, Al-|
w: |||||
 d2 (cB) (cA) | (Bc d2) z2 | z2 (FG) (AF) | G2 E2 A2 | D2 G4 | G2 (GB) (AG) | ^F2 D2 G2 | E2 D4 | %109
w: * le- * lu- *|ja, _ _|Al- * le- *|\-~lu- ja, Al-|le- lu-|ja, Al- * le- *|lu- ja, Al-|le- lu-|
w: ||||||||
 D2 G2 E2 | ^C2 D2 z2 | z2 (E2 A2- | A2 G^F) (EG) | ^F2 B,2 B2- | B2 (AG A2- | A2) (G^F) E2 | %116
w: ja, Al- le-|\-~lu- ja,|Al- *|* * * le- *|lu- ja, Al~\--|* le- * *|* lu- * ja,|
w: |||||||
 A^GAc BA | ^G2 E2 z2 | z2 E^F =GE | A2 A,2 A2- | A2 ^F2 D2 | G4 G2- | G2 E2 A2- | A2 (G^F) (GE) | %124
w: Al~\-- * * * le- *|lu- ja,|Al- * le- *|lu- ja, Al-|* le- lu-|ja, Al-|­ le- lu-|* ja, _ Al- *|
w: ||||||||
 ^F2 F4 | (E^F) (GF) (EG) | ^F2 B,2 (B2- | B2 AG) (^FA) | G2 D2 G2- | G2 (^FG) (AF) | %130
w: le- lu-|ja, _ Al- * le- *|lu- ja, Al-|* * * le *|lu- ja, Al-|* le- * lu- *|
w: ||||||
 ^G2 (AB) (A=G) | (FD) E2 z2 | (DEFE) (DF) | E2 A,2 A2- | A2 GA BG | A2 D2 B2- | B2 A^G A2- | %137
w: ja, A- * le- *|lu- * ja,|Al- * * * \-~le- *|lu~\-- ja, Al-|* * * \-~le- *|lu- ja, Al-|* le- * *|
w: |||||||
 A2 ^G^F G2 | A2 z2 z2 | z2 z4 | (CDEDCE) | (DEFE) (DF) | E2 A,2 (A2- | A2 GFGE) | F6 | %145
w: * lu- * *|\-~ja,||Al- * * * * *|le~\-- * * * lu- *|ja, Al- le-||lu~\--|
w: ||||||||
 (EF) (GF) (EG) | ^F2 G2 z2 | (EDCD) (EC) | F2 E2 z2 | (FGAG) (FA) | D2 (EF G2) | (FG) A2 A2 | %152
w: ja, _ Al- * le- *|\-~lu- ja,|Al~\-- * * * le- *|lu- ja,|Al~\-- * * * le- *|lu- ja, _ _|Al- * le- lu-|
w: |||||||
 G4 G2 | (A2 G2) F2 | (E2 z GAB) | c2 G2 (c2- | c2 BA) (BG) | A2 E2 (A2- | A2 GF) (GE) | %159
w: \-~ja, Al-|le- * lu-|ja, * * *|* Al- le-|* * * lu- *|ja, Al- le-|­ ­ * lu- *|
w: |||||||
 F2 C2 (F2- | F2 ED) (EC) | (DEFGAF | G4) G2 | A2 G4 | !fermata!G6 |] %165
w: ja, Al- le-|* * * lu- *|ja, _ _ _ _ _|_ Al-|le- lu-|ja.|
w: ||||||
V:3
 z16 | z16 | z16 | z16 | z2 (C2 E2 G2 c2 E2 G2 c2 | e2 fe) (dc) (BA) B2 (gf edcB | %6
w: ||||Lo- * * * * * *|* * * bet * den * Herrn, al- * * * * *|
w: ||||||
 c2 c2 d2) d2 (G2 AB c4- | c2 _BA B4- B2) (AG) A2 d2 | B2 G2 g2 f e d2 d2- d2 G2 | g2 e2 z4 z8 | %10
w: ­ le, al- le Hei- * * *|* * * * * den, * al- le|Hei- den, lo- bet den Herrn, al- * le|Hei- den,|
w: ||||
 z2 (G2 B2) d2 (g2 ag) f2 e2 | d2 (ag fed^c d2) A2 (A2 d2- | d2 cd edcB c2) A2 f2 e2 | %13
w: lo- * bet, lo- * * bet den|Herrn, lo- * * * * * * bet, lo- *| - * * * * * * * bet, al- le|
w: |||
 f8- f2 ^G2 A2 e2 | e2 c2 (edcB c2 AB cd e2 | ^d2 e2) d2 e2 B4 z4 | z2 (G2 B2 c2 g2 B2 c2 g2 | %17
w: Hei- * den, al- le|Hei- den, lo- * * * * * * * * *|­ ­ bet den Herrn,|lo- * * * * * *|
w: ||||
 a2 gf) e2 d2 e2 (gfed) (cB) | c2 G2 c4- c2 Bc d2 d2 | d2 d2 z2 g2- g2 f f f2 B2 | %20
w: * * * bet den Herrn, al- * * * le *|Hei- den, al- * * * * le|Hei- den, lo- * bet den Herrn, den|
w: |||
 c2 (c2- cBce d2) d2 d2 (ef) | (e2 fg fedc d2) d2 (cBAG | A2) d2 G2 d2 d2 d2 z4 | z16 | z16 | z16 | %26
w: Herrn, al- * * * * * le, al- le *|Hei- * * * * * * * den, al- * * *|* le, al- le Hei- den,||||
w: ||||||
 z8 z4 z2 d2 | (efed cdcB A2) G A B2 (AB) | (c2 de f4- f2) (gf) (ed) (cB) | %29
w: und|prei- * * * * * * * * set ihn, al- le *|Völ- * * * * ker, * al- * le *|
w: |||
 c2 c2 z2 c2 f2 F F c2 c2 | c2 c2 z2 (gf edeg fedc | d2) d2 d2 d2 c2 c2 z2 G2 | %32
w: Völ- ker, und prei- set ihn, al- le|Völ- ker, al- * * * * * * * * *|* le, al- le Völ- ker, und|
w: |||
 ABAG A2 A2 Bc BA B2 B2 | (cdc_B c2) c2 (de) (dc) d2 (gf | e2) f2 (gf) (ef) d2 d2 (dedc | %35
w: prei- * * * * set, prei- * set * ihn, und|prei- * * * * set, prei- * set _ ihn, al- *|* le, al- * le * Völ- ker, prei~\-- * * *|
w: |||
 BcBA G2) A B c2 c2 (cdc_B | A_BAG F2) A2 (d4- dc=BA | ^G2 A2- A2) G2 e2 c2 c4- | %38
w: * * * * * \-~set ihn, al- le, al~\-- * * *| - * * * *   al- * * * *|* * * le Völ- ker, al-|
w: |||
 c2 Bc d2 A2 B2 G2 z2 e2 | d2 A2 (dcBA B2) ^G2 E2 e2 | c2 d d B2 e2 (c4- cedc | %41
w: * * * * le Völ- ker, und|prei- set, prei~\-- * * * * set ihn, und|prei- set ihn, al- le, al- * * * *|
w: |||
 d2) g2 g2 g2 g2 B2 z4 | z2 (C2 E2 G2 c2 E2 G2 c2 | e2 fe) (dc) (BA) d2 z2 z2 (ed | %44
w: * le, al- le Völ- ker.|Lo- * * * * * *|* * bet _ _ den _ Herrn, al- *|
w: |||
 c2) (de) d4 G4 z2 G2 | (A_BAG FEFG A2) F2 D2 d2 | (d8- d3 c BAG^F | E2 ed cBA^G A2) G A B2 B2 | %48
w: * le * Völ- ker, und|prei- * * * * * * * * set ihn, und|prei~\-- * * * * * *|* * * * * * * * set ihn, al- le|
w: ||||
 E2 E2 z4 z2 e2 (efed | cdcB A2) B c d2 d2 (dedc | BcBA G2) A2 G2 g4 ^fe | ^d2 e2 c2 B2 B2 G2 e4- | %52
w: Völ- ker, und prei~\-- * * *|* * * * * set ihn, al- le, al~\-- * * *|* * * * * le Völ~\-- * * *|* ker, al- le Völ- ker, al-|
w: ||||
 e2 d2 e4 d2 (de f4- | f2) e2 d2 g2 c2 c2 z4 | z2 (gfed) (cB) A2 (agfe) (dc) | %55
w: * le Völ- ker, al- * *|* le, al- le Völ- ker,|prei- * * * set _ ihn, al- * * * le, *|
w: |||
 (d2 ef g2) g2 e2 c2 z2 a2 | d2 g2 c (dcB A2) F2 G4 | G4 z2 e2 e4 d4 | d8 d4 e4 | (e4 A4) A4 z4 | %60
w: al~\-- * * * le Völ- ker, und|prei- set ihn, al- * * * le Völ-|\-~ker. Denn sei- ne|Gna- de und|Wahr- * heit|
w: |||||
 z4 (f2 e2 d2 B2 e2 d2 | c2 Bc d2 c2 B2 ^G2) (A2 B2) | c4 (B2 A2) B4 z2 e2 | %63
w: wal~\-- * * * * *|* * * * * * * tet _|ü- ber _ uns, denn|
w: |||
 (e2 d2) (c2 B2) (A4 G2 F2 | G8) G4 A4 | (A2 G2 A4) G4 z4 | z4 (_B2 A2 G2 E2 A2 G2 | %67
w: sei- * ne _ Gna- * *|* de und|Wahr- * * heit|wal~\-- * * * * *|
w: ||||
 F2 EF G2 F2 E2 ^C2) (D2 E2) | F4 (E2 D2) E4 z2 ^c2 | A4 A4 A8 | A4 ^c4 (d2 c2 d4- | %71
w: * * * * * * * \-~tet _|ü- ber _ uns, denn|sei- ne Gna-|\-~de und Wahr~~\-- * *|
w: ||||
 d2 ^c2) (d2 B2) (c2 de f2 e2 | d4 G2 A_B c4 F2 GA | _B6 AG A6 GF | G6 FG A2 G2- G2) c2 | %75
w: * * heit _ wal~~\-- * * * *|||\- * * * * *  |
w: ||| - * * * * * *|
 c6 B2 c2 G2 (cB) c2 | B4 G2 A2 (B2 G2 g2) f g | (e2 d2) (e2 c2) (B2 cd edcB | %78
w: ü- ber uns in E- * wig-|keit, sei- ne Gna- * * de und|Wahr- * heit _ wal- \- * * * * *|
w: |||
 A2) G2 A2 B2 c2 G2 c4- | c4 B4 (c2 B2) (c2 d2) | (e2 f2) (e2 d2) c2 e2- ed e2 | %81
w: * tet ü- ber uns in E-|* wig- keit, _ in _|E- * wig- * keit, sei- * * ne|
w: |||
 c6 c d (e2 d2) c2 (f2- | f2 e2) f2 g4 (fe) d2 c2 | (_B2 A2 G2 c4) B2 A2 G2 | %84
w: Gna- de und Wahr- * heit wal-|­ * tet ü- ber _ uns in|E- * * * wig- keit, in|
w: |||
 (A2 _B2) (A2 G2) F2 (f3 g) (f_e) | d4 d2 g2 g2 c2 z2 (fe | d2) d2 G2 G2 A2 (dc d2) e2 | %87
w: E- * wig- * keit, sei- * ne _|Gna- de und Wahr- heit wal- *|* tet ü- ber uns, wal- * * tet|
w: |||
 A2 A2 A2 d2 ^c2 (de) A4- | A2 (d^c d2 e4 ag f2 c2 | de^ce defd eg) fe d2 A2 | %90
w: ü- ber uns in E- wig- * keit,|\-~keit, wal~\-- * * * * * * *|* * * * * * * * * tet _ _ ü- ber|
w: |||
 F2 f2 g2 e2 d2 z2 z4 | z8 z4 d4 | d16- | (d12 c4) | (c2 B2) z2 B2 (c2 B2) (c2 d2) | %95
w: uns in E- wig- keit,|in|E-|* wig-|keit, _ denn sei- * ne _|
w: |||||
 d4 c2 _B2 (A2 c2) f2 g2- | g2 (fe) d2 d2 g4 z2 e2 | (d2 c2) d4 c4 z4 |[M:3/4] z6 | z6 | z4 z2 | %101
w: Gna- de und Wahr- * heit wal-|* tet _ ü- ber uns in|E- * wig- keit.||||
w: ||||||
 (cded) (ce) | d2 G2 g2- | g2 (fe) (fd) | (ef g2) z2 | z2 (Bc) (dB) | (cB) (cd) (ec) | A2 (Bc) d2 | %108
w: Al- * * * le- *|lu- ja, Al-|* le- * lu- *|\-~ja, _ _|Al- * le- *|lu- * ja, _ Al- *|le- lu- * ja,|
w: |||||||
 (cB) A2- A G | G2 z2 z2 | z2 (A2 d2- | d2 cB) (Ac) | B2 (ed) (cB) | A2 (BA) (G^F) | (E^F) F3 G | %115
w: Al- * le- * lu-|ja,|Al- *|* * * le- *|lu- ja, _ Al- *|le- lu- * ja, _|Al- * le- lu-|
w: |||||||
 G2 z2 G2- | G2 d2 f2 | B2 ABcA | dcBd cB | A2 z2 z2 | z2 B2 ^f2 | e4 B2 | z2 e2 c2 | B3 B B2 | %124
w: ja, Al-|­ le- lu-|ja, Al~\-- * * *|le- * * * lu- *|ja,|Al- le-|lu- ja,|Al- le-|lu- ja, Al-|
w: |||||||||
 c2 B4 | B2 z2 z2 | z6 | z2 z4 | (GABA) (GB) | A2 D2 d2- | d2 (cB) (cA) | (BABd^ce | d2) (A2 d2- | %133
w: le- lu-|ja,|||Al- * * * le- *|lu- ja, Al-|* le- * lu- *|ja, _ _ _ _ _|_ Al- *|
w: |||||||||
 d2) ((cd) e2) | e2 B2 G2 | c2 A2 f2 | ^G2 e2 c2 | f2 d2 B2 | c2 e2 f2 | d2 B2 e2 | (ABcBAc) | %141
w: * le- * *|\-~lu~\-- * ja,|Al- * le-|lu- ja, Al-|le- lu- ja,|Al- le- lu-|* ja, lu-|Al- * * * * *|
w: ||||||||
 (Bcdc) (Bd) | (cdedce | dcBdcB | AcBABG) | (gfef) (ge) | a2 d2 z2 | (cded ce) | (dc) B2 z2 | %149
w: le- * * * lu- *|ja, _ _ _ _ _|_ _ _ _ _ _||Al- * * * le- *|\-~lu- ja,|Al~\-- * * * * *|le- * lu-|
w: ||||||||
 (c_BAB) (cd) | B2 G2 (e2- | e2 dc) d2- | d2 (cB) c2- | cd B3 c | (cGABcd) | (edcd) (ec) | %156
w: Al~\-- * * * le- *|lu- ja, Al-|* * * le|­ lu- * ja,|_ Al- le- lu-|ja, _ _ _ _ _|Al- * * * le- *|
w: |||||||
 d2 g2 z2 | (cBAB) (cA) | B2 e2 z2 | (AGFG) (AF) | G2 (cB c2) | (f6- | f2 ed) (e2- | ef) (d3 e) | %164
w: lu- ja,|Al- * * * le- *|\-~lu- ja,|Al- * * * le- *|lu- ja, _ _|Al-|* * * le-|* * lu- *|
w: ||||||||
 !fermata!e6 |] %165
w: ja.|
w: |
V:4
 z16 | z16 | z16 | z16 | z16 | z2 (G,,2 B,,2 D,2 G,2 B,,2 C,2 G,2 | %6
w: |||||Lo- * * * * * *|
w: ||||||
 A,2 _B,A,) (G,F,) (E,D,) E,2 (C=B, A,G,F,E, | F,2) F,2 G,2 G,2 (C,2 D,E, F,4- | %8
w: * * * \-~bet _ den * Herrn, al- * * * * *|* le, al- le Hei- * * *|
w: ||
 F,2) (E,D,) E,2 A,2 F,2 D,2 (G,A,G,F, | E,2) C,2 E,2 G,2 (C2 DC) B,2 A,2 | G,2 z2 z4 z8 | %11
w: * den, * al- le, al- le Hei- * * *|­ den, lo- bet, lo- * * bet den|Herrn,|
w: |||
 z2 (D,2 F,2) A,2 (D2 ED C2) B,2 | (A,16- | A,2 B,C B,2 A,2 ^G,2) E,2 ^F,2 G,2 | %14
w: al- * le, al- * * * le|Hei-|* * * * * * den, al- le|
w: |||
 A,2 A,2 z4 z2 (CB, A,2) =G,2 | (^F,2 A,G, F,2 E,2 ^D,2) B,,2 ^C,2 D,2 | %16
w: Hei- den, al- * * le|Hei- * * * * * den, al- le|
w: ||
 E,2 E,2 z (E,=D,=C, B,,2) G,,2 z (C,D,E, | F,2) D,2 G,2 G,,2 C,2 C,2 z4 | %18
w: Hei- den, al- * * * le, al- * *|* le, al- le Hei- den,|
w: ||
 z2 (C2 B,2) A,2 G,2 G,,2 (B,,2 D,2 | G,2 B,,2 C,2 G,2 A,2 _B,A,) (G,F,) (E,D,) | %20
w: al- * le Hei- den, lo- *|* * * * * * * bet * den *|
w: ||
 E,2 (CB, A,G,F,E, F,2) F,2 G,2 G,2 | (C,2 D,E, F,4- F,2 E,D, E,2 A,2 | %22
w: Herrn, al- * * * * * * le, al- le|Hei- * * * * * * * *|
w: ||
 ^F,2) D,2 E,2 F,2 G,2 G,,2 z4 | z16 | z16 | z16 | z16 | z16 | z8 z4 z2 G,2 | %29
w: * den, al- le Hei- den,||||||und|
w: |||||||
 (A,_B,A,G, F,G,F,E, D,2) C, D, E,2 (D,E,) | (F,2 G,A, _B,4- B,2) (CB,) (A,G,) (F,E,) | %31
w: prei- * * * * * * * * set ihn, al- le *|Völ- * * * * ker, * al- * le *|
w: ||
 F,2 D,2 G,2 F,2 E,2 C,2 z2 C,2 | (F,G,F,E, D,2 E,F, G,A,) (G,F,) E,2 E,2 | %33
w: Völ- ker, al- le Völ- ker, und|prei- * * * * * * * * set * ihn, und|
w: ||
 (A,_B,A,G, F,2 G,A,B,C) (B,A,) G,2 G,2- | G,2 F,2 E,2 A,2 F,2 D,2 z4 | %35
w: prei- * * * * * * * * set _ ihn, al-|* le, al- le Völ- ker,|
w: ||
 z2 G,2 (G,A,G,F, E,F,E,D, C,2) D, E, | F,2 F,2 (F,G,F,E, D,E,D,C, B,,2) (C,D,) | %37
w: und prei~\-- * * * * * * * * set ihn,|al- le, al- * * * * * * * * le *|
w: ||
 E,2 E,2 z2 E,2 (A,CB,A, G,A,G,F, | E,2) D, E, ^F,2 (E,F,) (G,2 A,B, C4- | %39
w: Völ- ker, und prei- * * * * * * *|* set ihn, al- le, * al- * * *|
w: ||
 C2 DCB,A,) (^G,^F,) G,2 E,2 z2 E,2 | (F,2 D,2 G,2) F, E, (A,2 B,C DCB,A, | %41
w:  - * * * *   * Völ- ker, und|prei- * * set ihn, al- * * * * * *|
w: ||
 B,2) G,2 C2 C,2 G,2 G,,2 B,,2 G,,2 | C,2 C,2 z2 E,2 (F,2 G,F,E,D,) (C,B,,) | %43
w: * le, al- le Völ- ker, al- le|Völ- ker, und prei- * * * * set _|
w: ||
 A,,2 (B,,C, D,E,D,C, B,,2 G,,2 C,D, E,2- | E,2) (D,C,) D,4 C,2 (C,D, E,2) C,2 | %45
w: ihn, al- * * * * * * * * * *|* le _ Völ- ker, al- * * le|
w: ||
 F,2 F,2 z4 z2 (D,E, ^F,2) D,2 | G,2 G,,2 (B,,2 D,2 G,2 B,,2 D,2 G,2 | %47
w: Völ- ker, al- * * le|Völ- ker. Lo~\-- * * * * *|
w: ||
 B,2 CB,) (A,G,) (^F,E,) F,2 (B,C D2) D2 | (D2 ED CB,A,^G, A,2) A,,2 z2 A,2 | %49
w: * * bet _ den _ _ Herrn, al- * * le|Hei~\-- * * * * * * * den, und|
w: ||
 (A,B,A,G, ^F,G,F,E, D,2) E, F, G,2 G,2 | (G,A,G,^F, E,F,E,^D, E,2) (F,G,) A,4- | %51
w: prei~\-- * * * * * * * * set ihn, al- le,|al~\-- * * * * * * * * le _ Völ-|
w: ||
 A,2 G,2 ^F,2 B,2 E,^D,E,F, G,4- | G,2 =F,2 E,2 A,2 F,2 =D,2 z (D,E,F, | %53
w: ­ ker, al- le Völ~\-- * * * *|* ker, al- le Völ- ker, al~\-- * *|
w: ||
 G,2 A,G, F,2) (G,F,) (E,F,E,D, C,D,C,B,, | A,,2 G,,A,, B,,2 A,,B,, C,2 D,E, F,4- | %55
w: * * * * le _ Völ~\-- * * * * * * *|\- * * * * * * * * *|
w: | - * * * * * * * * *|
 F,2) (E,D,) (E,2 F,G, A,B,CA, DC) (B,A,) | (B,2 G,2) z2 (A,G, F,2) D,2 G,4 | C,4 z2 C2 A,4 D,4 | %58
w: *   * prei- \- * * * * * \- * set _|ihn, * al- * * le Völ-|\-~ker. Denn sei- ne|
w: |||
 G,8 G,4 E,4 | ^C,8 D,4 z4 | z4 (D2 C2 B,2 G,2 C2 B,2 | A,2 ^G,A, B,2 A,2 G,2 E,2) (A,2 =G,2) | %62
w: Gna- de und|Wahr- heit|wal~\-- * * * * *|* * * * * * * tet _|
w: ||||
 (F,2 E,2) F,4 E,4 z2 E,2 | A,4 A,,4 (D,8 | C,8) C,4 A,,4 | ^F,,8 G,,4 z4 | %66
w: ü- * ber uns, denn|sei- ne Gna-|* de und|Wahr- heit|
w: ||||
 z4 (G,2 F,2 E,2 C,2 F,2 E,2 | D,2 ^C,D, E,2 D,2 C,2 A,,2) (D,2 =C,2) | %68
w: wal~\-- * * * * *|* * * * * * * \-~tet _|
w: ||
 (_B,,2 A,,2) B,,4 A,,4 z2 A,2 | (F,2 E,2) (D,2 F,2) A,,8 | A,,4 A,4 A,8 | %71
w: ü- * ber uns, denn|sei- * ne _ Gna-|de und Wahr-|
w: |||
 A,,4 (A,4- A,2 B,^C D2 =C2 | _B,12 A,4- | A,4 G,8 F,4- | F,4) E,4 F,4 E,4 | %75
w: heit wal- * * * * *|||­ tet, wal- tet|
w: ||||
 (D,2 C,2) (D,2 G,,2) (C,2 D,2) (E,2 C,2) | G,3 G,, G,,4 z8 | z16 | z16 | z16 | %80
w: ü- * ber _ uns _ in _|E- wig- keit,||||
w: |||||
 z4 C,2 D,2 (E,2 C,2 C2) _B, C | (A,2 G,2) (A,2 F,2) (E,2 F,G, A,G,F,E, | %82
w: sei- ne Gna- * * de und|Wahr- * heit _ wal- * * * * * *|
w: ||
 D,2) C,2 D,2 E,2 F,2 C,2 F,4- | F,4 E,4 F,4 z2 F,2 | F,3 F,, F,,4 z8 | %85
w: ­ tet ü- ber uns in E-|* wig- keit, in|E- wig- keit,|
w: |||
 z2 _B,,2 _B,2 B,2 (B,2 A,G,) A,2 F,2 | F,2 (E,D, E,2) (C4 _B,A, B,2 G,2- | %87
w: denn sei- ne Gna- * * de und|Wahr- heit _ _ wal- * * * *|
w: ||
 G,2 F,E, F,2) D,2 A,3 A,, A,,2 A,2 | A,16- | A,16- | A,4 G,4 G,4 z2 F,2 | %91
w: * * * * tet ü- ber uns in|E-||* wig- keit, in|
w: ||||
 (E,2 A,2- A,2 G,2 F,E,) D,2 D2 C2 | (B,2 A,G, ^F,2) E,F, G,4 z2 G,,2 | (D,4 G,2) B,,2 C,4 z2 D,2 | %94
w: E- * * * * * wig- keit, in|E- * * * wig- * keit, in|E- * wig- keit, in|
w: |||
 G,,2 (G,^F, G,2) G,2 A,2 (G,2 A,2) B,2 | (C2 G,2) C2 C,2 (D,2 C,2) (D,2 E,2) | %96
w: E- * * * wig- keit, sei- * ne|Gna- * de und Wahr- * heit _|
w: ||
 F,2 C,2 F,4- F,2 (E,D,) E,2 C,2 | G,4 G,,4 C,4 z4 |[M:3/4] z6 | z6 | z6 | z6 | (G,A,B,A,) (G,B,) | %103
w: wal- tet ü- * ber _ uns in|E- wig- keit.|||||Al- * * * le- *|
w: |||||||
 A,2 D,2 D2- | D2 (CB,) (CA,) | (B,C D2) z2 | (C,D,E,D,) (C,E,) | D,2 G,,2 G,2- | G,2 (^F,E,) F,2 | %109
w: lu- ja, Al-|­ le- * lu- *|ja, _ _|Al- * * * le- *|lu- ja, Al-|* le- * lu-|
w: ||||||
 (G,A,) (B,A,) (G,B,) | A,2 D,2 z2 | z2 A,2 ^F,2 | ^D,2 E,2 z2 | z2 z4 | z4 z2 | z2 (D,2 G,2- | %116
w: ja, _ Al- * le- *|lu- ja,|Al- le-|lu- ja,|||Al- *|
w: |||||||
 G,2 F,E,) D,F, | E,2 A,,2 A,2- | A,2 G,^F, E,G, | (^F,G,A,G,F,A, | B,CDCB,D | E,^F,G,F,E,G, | %122
w: ­ ­ * le- *|lu- ja, Al-|* le- * lu- *|ja, _ _ _ _ _|_ _ _ _ _ _||
w: ||||||
 A,B, CB, A,C | ^D,2) B,,2 (E,2- | E,2 ^D,^C,) D,2 | E,2 z2 z2 | z6 | z6 | z4 z2 | %129
w:   _ _ _ _ _|_ Al- le-|* * * lu-|ja,||||
w: |||||||
 (D,E,^F,E,) (D,F,) | E,2 A,,2 A,2- | A,2 (G,F,) (G,E,) | (F,E,D,E,F,D, | A,2) (A,,B,,C,A,,) | %134
w: Al- * * * le- *|lu- ja, Al-|* le- * lu- *|ja, _ _ _ _ _|_ Al- * * *|
w: |||||
 (E,F,G,F,) (E,G,) | (F,G,F,E,D,F, | E,2) (C,2 F,2) | (D,2 B,,2) E,2 | A,,2 A,^G, A,2- | A,2 ^G,4 | %140
w: le~\-- * * * lu- *|ja, _ _ _ _ _|_ Al- *|le- * lu-|ja, Al- * le-|* lu-|
w: ||||||
 A,2 z2 z2 | z2 z4 | (A,B,CB,) (A,C) | B,2 E,2 (E2- | E2 DC) (DB,) | C2 C,2 (C2- | %146
w: \-~ja,||Al- * * * le- *|lu- ja, Al-|* * * le- *|lu- ja, Al-|
w: ||||||
 C2 B,A,) (B,G,) | A,2 A,,2 A,2- | A,2 (G,F,) (G,E,) | F,2 F,,2 F,2- | F,2 (E,D,) (E,C,) | %151
w: ­ * * le- *|lu- ja, Al-|* * * le- *|lu- ja, Al-|* le- * lu- *|
w: |||||
 (D,E,F,E,) (D,"^( le - )"F,) | B,,2 G,,2 C,2 | F,2 G,2 G,,2 | C,2 z2 z2 | z2 C2 C,2 | G,2 G,2 z2 | %157
w: ja, _ _ _ Al~\- *|\-~le- lu- ja,|Al- le- lu-|ja,|Al- le-|lu- ja,|
w: ||||||
 z2 A,2 A,,2 | E,2 E,2 z2 | z2 F,2 F,,2 | C,2 C,2 z2 | z2 D,2 A,,2 | (B,,2 G,,2) C,2 | %163
w: Al- le-|\-~lu- ja,|Al- le-|lu- ja,|Al- le-|lu- * ja,|
w: ||||||
 F,2 G,2 G,,2 | !fermata!C,6 |] %165
w: Al- le- lu-|ja.|
w: ||

